X:1
T:Isaac Watts, 1709 (Hymn 148, Book 2) 86. 86. (C. M.)
T:F Major Oliver Holden, 1796
T:New Concord No copyright. Transcribed from The Union Harmony, 1796.
%%score [ 1 2 3 4 ]
L:1/8
M:4/4
K:F
V:1 treble nm="Treble" snm="Tr."
V:2 treble nm="Counter" snm="C."
V:3 treble-8 nm="Tenor" snm="T."
V:4 bass nm="Bass" snm="B."
V:1
 A4 F2 A2 | A3 c A2 F2 | A3 B A2 G2 | F4 c4 | c6 A2 | c2 A2 c2 A2 | B2 B2 B2 c2 | c2 B2 A2 G2 | %8
 G8 | A4 A2 B2 | c6 d2 | (c2 B2) (A2 G2) | A6 c2 | (d2 c2) (d2 e2) | (f2 d2) (c2 =B2) | c8 | %16
 A4 A2 A2 | A6 GA | B4 B4 | B6 A2 | (c2 A2) (c2 f2) | d4 d4 | c4 z2 AB/c/ | c4 (B2 AG) | c4 B4 | %25
 A8 |] %26
V:2
 F4 C2 C2 | F3 F D2 C2 | F3 F F2 G2 | F4 E4 | F6 C2 | F2 F2 F2 F2 | F2 F2 F2 F2 | G2 F2 E2 D2 | %8
w: 1.~Dear- est of|all the names a-|bove, My Je- sus|and my|God, Who|can re- sist Thy|heav'n- ly love, Or|tri- fle with Thy|
 C8 |"^Tis       by   the     mer  -  its       of            Thy        death,    The" z8 | z8 | %11
w: blood?|||
 z8 | z8 |"^Fath   -    er     smiles      a   -   gain;" z8 | z8 | z8 | F4 F2 F2 | F6 F2 | F4 F4 | %19
w: |||||Tis by Thy|in- ter-|ce- ding|
 F6 F2 | F4 F4 | F4 D4 | E4 z2 F2 | A4 F4 | F4 E4 | F8 |] %26
w: breath The|Spi- rit|dwells with|men, The|Spi- rit|dwells with|men.|
V:3
 c4 A2 F2 | c3 A F2 A2 | c3 d c2 B2 | A4 G4 | A6 F2 | A2 c2 A2 c2 | d2 d2 d2 f2 | e2 d2 c2 =B2 | %8
w: 2.~Till God in|hu- man flesh I|see, My thoughts no|com- fort|find; The|ho- ly, just, and|sac- red Thee Are|ter- rors to my|
 c8 |"^But     of      Im - man  -  uel's    face       ap    -    pear,         My" z8 | z8 | z8 | %12
w: mind.||||
 z8 |"^hope,   my      joy          be    -    gins;" z8 | z8 | z8 | c4 c2 c2 | c6 Bc | d4 d4 | %19
w: ||||I love th'in-|car- nate *|mys- te-|
 d6 de | (f2 c2) (A2 c2) | (d2 c2) (B2 A2) | (A2 G2) z2 cd/e/ | f4 (d2 cB) | A4 G4 | F8 |] %26
w: ry, And *|there * I *|fix * my *|trust, * And * *|there I * *|fix my|trust.|
V:4
 F,4 F,2 F,2 | F,3 F, A,2 C2 | F,3 F, A,2 B,2 | C4 C,4 | F,6 F,2 | F,2 A,2 F,2 A,2 | %6
 B,2 B,2 B,2 A,2 | G,2 G,2 G,2 G,2 | C,8 | F,4 F,2 F,2 | A,6 B,2 | (A,2 G,2) (F,2 E,2) | D,6 C,2 | %13
 B,,4 B,,4 | F,4 G,4 | C,8 | F,4 F,2 F,2 | F,6 D,2 | B,,4 B,,4 | B,,6 F,2 | F,4 F,4 | %21
 (B,2 A,2) (G,2 F,2) | C,4 z2 F,2 | A,4 B,4 | C4 C,4 | F,8 |] %26

